img/icon-inbox.svg

<svg width="16" height="16" viewBox="0 0 16 16" fill="none" xmlns="http://www.w3.org/2000/svg">
<g clip-path="url(#clip0_258_524)">
<path d="M9.84717 4.11328H10.7295C11.0765 4.11328 11.3685 4.15137 11.6055 4.22754C11.8467 4.29948 12.071 4.42432 12.2783 4.60205C12.4857 4.77555 12.7142 5.01253 12.9639 5.31299L15.1157 7.90918C15.2427 8.05729 15.34 8.20329 15.4077 8.34717C15.4754 8.49105 15.522 8.65397 15.5474 8.83594C15.5728 9.0179 15.5854 9.23796 15.5854 9.49609V13.2412C15.5854 13.9352 15.4035 14.4642 15.0396 14.8281C14.6756 15.1921 14.1403 15.374 13.4336 15.374H2.56006C1.85758 15.374 1.32227 15.1921 0.954102 14.8281C0.590169 14.4642 0.408203 13.9352 0.408203 13.2412V9.49609C0.408203 9.23796 0.420898 9.0179 0.446289 8.83594C0.47168 8.65397 0.518229 8.49105 0.585938 8.34717C0.653646 8.20329 0.748861 8.05729 0.871582 7.90918L3.02344 5.31299C3.27734 5.01253 3.50798 4.77555 3.71533 4.60205C3.92692 4.42432 4.1512 4.29948 4.38818 4.22754C4.62516 4.15137 4.91715 4.11328 5.26416 4.11328H6.14648V5.26855H5.23242C5.0293 5.26855 4.84733 5.30876 4.68652 5.38916C4.52995 5.46533 4.38607 5.58594 4.25488 5.75098L1.98242 8.56299C1.92741 8.6307 1.91048 8.70052 1.93164 8.77246C1.95703 8.84017 2.02051 8.87402 2.12207 8.87402H6.17822C6.34749 8.87402 6.47021 8.92269 6.54639 9.02002C6.62679 9.11312 6.66699 9.22103 6.66699 9.34375V9.36279C6.66699 9.58285 6.71989 9.79655 6.82568 10.0039C6.93148 10.2113 7.08382 10.3848 7.28271 10.5244C7.48161 10.6598 7.71859 10.7275 7.99365 10.7275C8.27295 10.7275 8.51204 10.6598 8.71094 10.5244C8.90983 10.3848 9.06217 10.2113 9.16797 10.0039C9.27799 9.79655 9.33301 9.58285 9.33301 9.36279V9.34375C9.33301 9.22103 9.37109 9.11312 9.44727 9.02002C9.52344 8.92269 9.64616 8.87402 9.81543 8.87402H13.8779C13.9795 8.87402 14.0409 8.84017 14.062 8.77246C14.0832 8.70052 14.0684 8.6307 14.0176 8.56299L11.7388 5.75098C11.6076 5.58594 11.4637 5.46533 11.3071 5.38916C11.1506 5.30876 10.9686 5.26855 10.7612 5.26855H9.84717V4.11328ZM2.64893 13.9585H13.3447C13.6198 13.9585 13.8314 13.8866 13.9795 13.7427C14.1276 13.5988 14.2017 13.3809 14.2017 13.0889V10.1055H10.4883C10.4121 10.4694 10.2576 10.7974 10.0249 11.0894C9.79639 11.3771 9.50863 11.6056 9.16162 11.7749C8.81462 11.9399 8.42529 12.0225 7.99365 12.0225C7.57048 12.0225 7.18538 11.9399 6.83838 11.7749C6.49137 11.6056 6.2015 11.3771 5.96875 11.0894C5.736 10.7974 5.58154 10.4694 5.50537 10.1055H1.79199V13.0889C1.79199 13.3809 1.86393 13.5988 2.00781 13.7427C2.15592 13.8866 2.36963 13.9585 2.64893 13.9585Z" fill="#222222"/>
<path d="M7.99365 0.476074C8.17562 0.476074 8.33008 0.539551 8.45703 0.666504C8.58398 0.793457 8.64746 0.941569 8.64746 1.11084V6.42383L8.56494 7.37598L8.87598 6.96973L9.66309 6.12549C9.77311 6.00277 9.91064 5.94141 10.0757 5.94141C10.2196 5.94141 10.3465 5.99219 10.4565 6.09375C10.5666 6.19108 10.6216 6.31592 10.6216 6.46826C10.6216 6.61637 10.5645 6.74544 10.4502 6.85547L8.47607 8.75977C8.39567 8.83594 8.31527 8.89095 8.23486 8.9248C8.15869 8.95443 8.07829 8.96924 7.99365 8.96924C7.91748 8.96924 7.83919 8.95443 7.75879 8.9248C7.67839 8.89095 7.59798 8.83594 7.51758 8.75977L5.54346 6.85547C5.4292 6.74544 5.37207 6.61637 5.37207 6.46826C5.37207 6.31592 5.42497 6.19108 5.53076 6.09375C5.63656 5.99219 5.76562 5.94141 5.91797 5.94141C6.08301 5.94141 6.22054 6.00277 6.33057 6.12549L7.11768 6.96973L7.42871 7.37598L7.35254 6.42383V1.11084C7.35254 0.941569 7.4139 0.793457 7.53662 0.666504C7.66357 0.539551 7.81592 0.476074 7.99365 0.476074Z" fill="#00B5D9"/>
</g>
<defs>
<clipPath id="clip0_258_524">
<rect width="16" height="16" fill="white"/>
</clipPath>
</defs>
</svg>

<svg width="16" height="16" fill="none" xmlns="http://www.w3.org/2000/svg"><g clip-path="url(#clip0_258_524)"><path d="M9.847 4.113h.883c.346 0 .638.038.875.115.242.071.466.196.673.374a5.6 5.6 0 0 1 .686.711l2.152 2.596c.127.148.224.294.292.438.067.144.114.307.14.489.025.182.037.402.037.66v3.745c0 .694-.182 1.223-.545 1.587-.364.364-.9.546-1.606.546H2.56c-.702 0-1.238-.182-1.606-.546-.364-.364-.546-.893-.546-1.587V9.496c0-.258.013-.478.038-.66.026-.182.072-.345.14-.489.068-.144.163-.29.286-.438l2.151-2.596c.254-.3.485-.537.692-.71.212-.179.436-.304.673-.375.237-.077.53-.115.876-.115h.882V5.27h-.914c-.203 0-.385.04-.545.12-.157.076-.3.197-.432.362L1.982 8.563c-.055.068-.072.138-.05.21.025.067.089.101.19.101h4.056c.17 0 .292.049.368.146a.48.48 0 0 1 .121.324v.019c0 .22.053.434.159.64.105.208.258.382.457.521.199.136.436.204.71.204.28 0 .519-.068.718-.204.199-.14.351-.313.457-.52.11-.207.165-.421.165-.641v-.02c0-.122.038-.23.114-.323.076-.097.2-.146.368-.146h4.063c.101 0 .163-.034.184-.102a.227.227 0 0 0-.044-.209l-2.28-2.812a1.265 1.265 0 0 0-.43-.362 1.179 1.179 0 0 0-.547-.12h-.914V4.113zM2.65 13.96h10.696c.275 0 .486-.072.634-.216.149-.144.223-.362.223-.654v-2.984h-3.714c-.076.364-.23.692-.463.984a2.465 2.465 0 0 1-.863.686 2.686 2.686 0 0 1-1.168.248c-.424 0-.809-.083-1.156-.248a2.527 2.527 0 0 1-.87-.686 2.32 2.32 0 0 1-.463-.984H1.792v2.984c0 .292.072.51.216.654.148.144.362.216.64.216z" fill="#222"/><path d="M7.994.476a.63.63 0 0 1 .463.19c.127.127.19.276.19.445v5.313l-.082.952.311-.406.787-.845a.531.531 0 0 1 .413-.184c.144 0 .27.051.38.153.11.097.166.222.166.374a.52.52 0 0 1-.172.387L8.476 8.76a.819.819 0 0 1-.241.165.66.66 0 0 1-.476 0 .819.819 0 0 1-.241-.165L5.543 6.855a.52.52 0 0 1-.17-.387c0-.152.052-.277.158-.374a.538.538 0 0 1 .387-.153c.165 0 .303.062.413.184l.787.845.31.406-.075-.952V1.11a.62.62 0 0 1 .184-.444.623.623 0 0 1 .457-.19z" fill="#00B5D9"/></g><defs><clipPath id="clip0_258_524"><path fill="#fff" d="M0 0H16V16H0z"/></clipPath></defs></svg>
